X: 21133
M: 6/8
L: 1/8
K: C
V: 1 name="4"
cdc cGE | GAG GAB | cdc cGE | Ddd ded |\
cdc cGE | GAG g2f | ede dBG | AcB c2 H|]
ceg gec | GBd dBG | ceg gec | egg g2G |\
ceg gec | Bcd dgf | ede dBG | AcB "^D.C."c2 |]


